public/files/perm/themes/base/zen/icons/fact_checksvg.svg

<svg enable-background="new 0 0 24 24" fill="#d40055" height="40" viewBox="0 0 24 24" width="40" xmlns="http://www.w3.org/2000/svg"><path d="m0 0h24v24h-24z" fill="none"/><path d="m2 3v18h20v-18zm8 14h-5v-2h5zm0-4h-5v-2h5zm0-4h-5v-2h5zm4.82 6-2.82-2.84 1.41-1.41 1.41 1.42 3.17-3.17 1.42 1.42z" fill-rule="evenodd"/></svg>

<svg xmlns="http://www.w3.org/2000/svg" enable-background="new 0 0 24 24" height="40px" viewBox="0 0 24 24" width="40px" fill="#d40055"><g><rect fill="none" height="24" width="24"/></g><g><g><path d="M2,3v18h20V3H2z M10,17H5v-2h5V17z M10,13H5v-2h5V13z M10,9H5V7h5V9z M14.82,15 L12,12.16l1.41-1.41l1.41,1.42L17.99,9l1.42,1.42L14.82,15z" fill-rule="evenodd"/></g></g></svg>
